X:58
T:Lads of Bonny Town,The. JBi.57
M:6/8
L:1/8
Q:3/8=120
S:James Biggins MS, Leeds, 1779.
R:.Jig
O:England
A:Yorkshire
Z:vmp.Nick Barber & Chris Partington
K:D
d2dc2d|efe efg|d2dc2d|ecAA2A|!
d2dc2d|efd efg|afd gec|d2dd3:|!
|:f2f fdf|g2g geg|f2f fdf|ecAA2g|!
faf def|gbg efg|afd gec|d2dd3:|

